src/assets/images/svg/solana.svg

<svg width="101" height="88" viewBox="0 0 101 88" fill="none" xmlns="http://www.w3.org/2000/svg">
<path d="M100.48 69.3817L83.8068 86.8015C83.4444 87.1799 83.0058 87.4816 82.5185 87.6878C82.0312 87.894 81.5055 88.0003 80.9743 88H1.93563C1.55849 88 1.18957 87.8926 0.874202 87.6912C0.558829 87.4897 0.31074 87.2029 0.160416 86.8659C0.0100923 86.529 -0.0359181 86.1566 0.0280382 85.7945C0.0919944 85.4324 0.263131 85.0964 0.520422 84.8278L17.2061 67.408C17.5676 67.0306 18.0047 66.7295 18.4904 66.5234C18.9762 66.3172 19.5002 66.2104 20.0301 66.2095H99.0644C99.4415 66.2095 99.8104 66.3169 100.126 66.5183C100.441 66.7198 100.689 67.0067 100.84 67.3436C100.99 67.6806 101.036 68.0529 100.972 68.415C100.908 68.7771 100.737 69.1131 100.48 69.3817ZM83.8068 34.3032C83.4444 33.9248 83.0058 33.6231 82.5185 33.4169C82.0312 33.2108 81.5055 33.1045 80.9743 33.1048H1.93563C1.55849 33.1048 1.18957 33.2121 0.874202 33.4136C0.558829 33.6151 0.31074 33.9019 0.160416 34.2388C0.0100923 34.5758 -0.0359181 34.9482 0.0280382 35.3103C0.0919944 35.6723 0.263131 36.0083 0.520422 36.277L17.2061 53.6968C17.5676 54.0742 18.0047 54.3752 18.4904 54.5814C18.9762 54.7875 19.5002 54.8944 20.0301 54.8952H99.0644C99.4415 54.8952 99.8104 54.7879 100.126 54.5864C100.441 54.3849 100.689 54.0981 100.84 53.7612C100.99 53.4242 101.036 53.0518 100.972 52.6897C100.908 52.3277 100.737 51.9917 100.48 51.723L83.8068 34.3032ZM1.93563 21.7905H80.9743C81.5055 21.7907 82.0312 21.6845 82.5185 21.4783C83.0058 21.2721 83.4444 20.9704 83.8068 20.592L100.48 3.17219C100.737 2.90357 100.908 2.56758 100.972 2.2055C101.036 1.84342 100.99 1.47103 100.84 1.13408C100.689 0.79713 100.441 0.510296 100.126 0.308823C99.8104 0.107349 99.4415 1.24074e-05 99.0644 0L20.0301 0C19.5002 0.000878397 18.9762 0.107699 18.4904 0.313848C18.0047 0.519998 17.5676 0.821087 17.2061 1.19848L0.524723 18.6183C0.267681 18.8866 0.0966198 19.2223 0.0325185 19.5839C-0.0315829 19.9456 0.0140624 20.3177 0.163856 20.6545C0.31365 20.9913 0.561081 21.2781 0.875804 21.4799C1.19053 21.6817 1.55886 21.7896 1.93563 21.7905Z" fill="url(#paint0_linear_174_4403)"/>
<defs>
<linearGradient id="paint0_linear_174_4403" x1="8.52558" y1="90.0973" x2="88.9933" y2="-3.01622" gradientUnits="userSpaceOnUse">
<stop offset="0.08" stop-color="#9945FF"/>
<stop offset="0.3" stop-color="#8752F3"/>
<stop offset="0.5" stop-color="#5497D5"/>
<stop offset="0.6" stop-color="#43B4CA"/>
<stop offset="0.72" stop-color="#28E0B9"/>
<stop offset="0.97" stop-color="#19FB9B"/>
</linearGradient>
</defs>
</svg>

<svg width="101" height="88" fill="none" xmlns="http://www.w3.org/2000/svg"><path d="M100.48 69.382l-16.673 17.42c-.363.378-.801.68-1.288.886a3.959 3.959 0 01-1.545.312H1.936c-.378 0-.746-.107-1.062-.309a1.9 1.9 0 01-.714-.825 1.841 1.841 0 01-.132-1.072c.064-.362.235-.698.492-.966l16.686-17.42a3.872 3.872 0 011.284-.885 3.96 3.96 0 011.54-.313h79.034c.378 0 .746.107 1.062.308.315.202.563.489.714.826.15.337.196.709.132 1.071a1.87 1.87 0 01-.492.967zM83.807 34.303a3.873 3.873 0 00-1.288-.886 3.96 3.96 0 00-1.545-.312H1.936c-.378 0-.746.107-1.062.309a1.9 1.9 0 00-.714.825c-.15.337-.196.71-.132 1.071.064.362.235.698.492.967l16.686 17.42c.362.377.799.678 1.284.884a3.96 3.96 0 001.54.314h79.034c.378 0 .746-.107 1.062-.309.315-.201.563-.488.714-.825a1.844 1.844 0 00-.36-2.038l-16.673-17.42zM1.936 21.791h79.038a3.96 3.96 0 001.544-.313 3.873 3.873 0 001.289-.886l16.673-17.42a1.87 1.87 0 00.492-.967 1.843 1.843 0 00-.132-1.07 1.906 1.906 0 00-.714-.826A1.974 1.974 0 0099.064 0H20.03a3.96 3.96 0 00-1.54.314 3.873 3.873 0 00-1.284.884L.525 18.618a1.868 1.868 0 00-.492.966c-.065.362-.019.734.13 1.07.15.337.398.624.713.826.315.202.683.31 1.06.31z" fill="url(#paint0_linear_174_4403)"/><defs><linearGradient id="paint0_linear_174_4403" x1="8.526" y1="90.097" x2="88.993" y2="-3.016" gradientUnits="userSpaceOnUse"><stop offset=".08" stop-color="#9945FF"/><stop offset=".3" stop-color="#8752F3"/><stop offset=".5" stop-color="#5497D5"/><stop offset=".6" stop-color="#43B4CA"/><stop offset=".72" stop-color="#28E0B9"/><stop offset=".97" stop-color="#19FB9B"/></linearGradient></defs></svg>
